styles/2/Numix-Circle/48x48/apps/shares.svg

<?xml version="1.0" encoding="UTF-8" standalone="no"?>
<svg
   xmlns:dc="http://purl.org/dc/elements/1.1/"
   xmlns:cc="http://creativecommons.org/ns#"
   xmlns:rdf="http://www.w3.org/1999/02/22-rdf-syntax-ns#"
   xmlns:svg="http://www.w3.org/2000/svg"
   xmlns="http://www.w3.org/2000/svg"
   xmlns:sodipodi="http://sodipodi.sourceforge.net/DTD/sodipodi-0.dtd"
   xmlns:inkscape="http://www.inkscape.org/namespaces/inkscape"
   viewBox="0 0 48 48"
   id="svg4533"
   version="1.1"
   inkscape:version="0.91 r"
   width="100%"
   height="100%"
   sodipodi:docname="shares.svg">
  <metadata
     id="metadata4596">
    <rdf:RDF>
      <cc:Work
         rdf:about="">
        <dc:format>image/svg+xml</dc:format>
        <dc:type
           rdf:resource="http://purl.org/dc/dcmitype/StillImage" />
      </cc:Work>
    </rdf:RDF>
  </metadata>
  <sodipodi:namedview
     pagecolor="#ffffff"
     bordercolor="#666666"
     borderopacity="1"
     objecttolerance="10"
     gridtolerance="10"
     guidetolerance="10"
     inkscape:pageopacity="0"
     inkscape:pageshadow="2"
     inkscape:window-width="1280"
     inkscape:window-height="998"
     id="namedview4594"
     showgrid="true"
     inkscape:zoom="9.8333333"
     inkscape:cx="24.263159"
     inkscape:cy="16.463137"
     inkscape:window-x="0"
     inkscape:window-y="0"
     inkscape:window-maximized="1"
     inkscape:current-layer="svg4533">
    <inkscape:grid
       type="xygrid"
       id="grid7074" />
  </sodipodi:namedview>
  <defs
     id="defs4535">
    <linearGradient
       id="linearGradient3764"
       x1="1"
       x2="47"
       gradientUnits="userSpaceOnUse"
       gradientTransform="matrix(0,-1,1,0,-1.5e-6,47.999998)">
      <stop
         stop-color="#dc810c"
         stop-opacity="1"
         id="stop4538" />
      <stop
         offset="1"
         stop-color="#ef8b0d"
         stop-opacity="1"
         id="stop4540" />
    </linearGradient>
  </defs>
  <g
     id="g4552">
    <path
       d="m 36.31 5 c 5.859 4.062 9.688 10.831 9.688 18.5 c 0 12.426 -10.07 22.5 -22.5 22.5 c -7.669 0 -14.438 -3.828 -18.5 -9.688 c 1.037 1.822 2.306 3.499 3.781 4.969 c 4.085 3.712 9.514 5.969 15.469 5.969 c 12.703 0 23 -10.298 23 -23 c 0 -5.954 -2.256 -11.384 -5.969 -15.469 c -1.469 -1.475 -3.147 -2.744 -4.969 -3.781 z m 4.969 3.781 c 3.854 4.113 6.219 9.637 6.219 15.719 c 0 12.703 -10.297 23 -23 23 c -6.081 0 -11.606 -2.364 -15.719 -6.219 c 4.16 4.144 9.883 6.719 16.219 6.719 c 12.703 0 23 -10.298 23 -23 c 0 -6.335 -2.575 -12.06 -6.719 -16.219 z"
       opacity="0.05"
       id="path4554" />
    <path
       d="m 41.28 8.781 c 3.712 4.085 5.969 9.514 5.969 15.469 c 0 12.703 -10.297 23 -23 23 c -5.954 0 -11.384 -2.256 -15.469 -5.969 c 4.113 3.854 9.637 6.219 15.719 6.219 c 12.703 0 23 -10.298 23 -23 c 0 -6.081 -2.364 -11.606 -6.219 -15.719 z"
       opacity="0.1"
       id="path4556" />
    <path
       d="m 31.25 2.375 c 8.615 3.154 14.75 11.417 14.75 21.13 c 0 12.426 -10.07 22.5 -22.5 22.5 c -9.708 0 -17.971 -6.135 -21.12 -14.75 a 23 23 0 0 0 44.875 -7 a 23 23 0 0 0 -16 -21.875 z"
       opacity="0.2"
       id="path4558" />
  </g>
  <g
     id="g4560">
    <path
       d="m 24 1 c 12.703 0 23 10.297 23 23 c 0 12.703 -10.297 23 -23 23 -12.703 0 -23 -10.297 -23 -23 0 -12.703 10.297 -23 23 -23 z"
       fill="url(#linearGradient3764)"
       fill-opacity="1"
       id="path4562" />
  </g>
  <g
     id="g4564" />
  <g
     id="g4590">
    <path
       d="m 40.03 7.531 c 3.712 4.084 5.969 9.514 5.969 15.469 0 12.703 -10.297 23 -23 23 c -5.954 0 -11.384 -2.256 -15.469 -5.969 4.178 4.291 10.01 6.969 16.469 6.969 c 12.703 0 23 -10.298 23 -23 0 -6.462 -2.677 -12.291 -6.969 -16.469 z"
       opacity="0.1"
       id="path4592" />
  </g>
  <path
     inkscape:connector-curvature="0"
     style="opacity:0.1;fill:#000000;fill-opacity:1;fill-rule:nonzero;stroke:none"
     d="m 15.750018,15 c -0.391,0 -0.75,0.421843 -0.75,0.875 l 0,1.125 -1.09375,0 -0.09375,0 c -0.440999,0.04301 -0.8155,0.418726 -0.8125,0.84375 l 0,16.28125 c 0,0.453026 0.434251,0.875 0.90625,0.875 l 22.1875,0 c 0.468999,0 0.90625,-0.421974 0.90625,-0.875 l 0,-14.21875 C 37.000018,19.457227 36.561767,19 36.093768,19 l -1.09375,0 0,-3.125 c 0,-0.454175 -0.355,-0.875 -0.75,-0.875 l -18.5,0 z"
     id="path3060" />
  <path
     style="fill:#b29c9c;fill-opacity:1;fill-rule:nonzero;stroke:none"
     inkscape:connector-curvature="0"
     id="path57"
     d="m 14.000018,20 0,-5.132383 c 0,-0.453157 0.359,-0.867617 0.75,-0.867617 l 18.5,0 c 0.395,0 0.75,0.413442 0.75,0.867617 l 0,5.132383 m -20,0" />
  <path
     style="fill:#ecedf1;fill-opacity:1;fill-rule:nonzero;stroke:none"
     inkscape:connector-curvature="0"
     id="path59"
     d="m 12.813017,16 c -0.440999,0.04301 -0.815999,0.434024 -0.812999,0.859048 l 0,16.277904 c 0,0.453026 0.43,0.863048 0.901999,0.863048 l 22.199984,0 C 35.571,34 36,33.589978 36,33.136952 L 36,18.89416 C 36,18.445137 35.57,18 35.102001,18 l -9.101983,0 0,-1.124951 C 26.000018,16.426024 25.543008,16 25.075008,16 l -12.175991,0 c -0.027,0 -0.059,0 -0.09,0"
     sodipodi:nodetypes="ccsssssscsssc" />
  <path
     style="fill:#b29c9c;fill-opacity:1;fill-rule:nonzero;stroke:none"
     d="m 27.75,20 c -1.238,0 -2.25,1.008 -2.25,2.25 0,0.093 0.01925,0.19125 0.03125,0.28125 L 21.8125,24.375 C 21.4025,23.98 20.859,23.75 20.25,23.75 19.016,23.75 18,24.758 18,26 c 0,1.238 1.012,2.25 2.25,2.25 0.613,0 1.1565,-0.23 1.5625,-0.625 l 3.71875,1.84375 C 25.52025,29.55875 25.5,29.656 25.5,29.75 25.5,30.988 26.508,32 27.75,32 28.988,32 30,30.992 30,29.75 30,28.512 28.992,27.5 27.75,27.5 c -0.606,0 -1.1565,0.234 -1.5625,0.625 L 22.46875,26.28125 C 22.47175,26.19125 22.5,26.094 22.5,26 c 0,-0.093 -0.01925,-0.19125 -0.03125,-0.28125 L 26.1875,23.875 C 26.5945,24.266 27.145,24.5 27.75,24.5 28.988,24.5 30,23.492 30,22.25 30,21.012 28.992,20 27.75,20 z"
     id="path4588"
     inkscape:connector-curvature="0"
     sodipodi:nodetypes="ssccsssccssssccsccsss" />
</svg>

<svg xmlns="http://www.w3.org/2000/svg" viewBox="0 0 48 48">
 <defs>
  <linearGradient id="linearGradient3764" x1="1" x2="47" gradientUnits="userSpaceOnUse" gradientTransform="matrix(0,-1,1,0,-1.5e-6,47.999998)">
   <stop style="stop-color:#dc810c;stop-opacity:1"/>
   <stop offset="1" style="stop-color:#ef8b0d;stop-opacity:1"/>
  </linearGradient>
 </defs>
 <g>
  <path d="m 36.31 5 c 5.859 4.062 9.688 10.831 9.688 18.5 c 0 12.426 -10.07 22.5 -22.5 22.5 c -7.669 0 -14.438 -3.828 -18.5 -9.688 c 1.037 1.822 2.306 3.499 3.781 4.969 c 4.085 3.712 9.514 5.969 15.469 5.969 c 12.703 0 23 -10.298 23 -23 c 0 -5.954 -2.256 -11.384 -5.969 -15.469 c -1.469 -1.475 -3.147 -2.744 -4.969 -3.781 z m 4.969 3.781 c 3.854 4.113 6.219 9.637 6.219 15.719 c 0 12.703 -10.297 23 -23 23 c -6.081 0 -11.606 -2.364 -15.719 -6.219 c 4.16 4.144 9.883 6.719 16.219 6.719 c 12.703 0 23 -10.298 23 -23 c 0 -6.335 -2.575 -12.06 -6.719 -16.219 z" style="opacity:0.05"/>
  <path d="m 41.28 8.781 c 3.712 4.085 5.969 9.514 5.969 15.469 c 0 12.703 -10.297 23 -23 23 c -5.954 0 -11.384 -2.256 -15.469 -5.969 c 4.113 3.854 9.637 6.219 15.719 6.219 c 12.703 0 23 -10.298 23 -23 c 0 -6.081 -2.364 -11.606 -6.219 -15.719 z" style="opacity:0.1"/>
  <path d="m 31.25 2.375 c 8.615 3.154 14.75 11.417 14.75 21.13 c 0 12.426 -10.07 22.5 -22.5 22.5 c -9.708 0 -17.971 -6.135 -21.12 -14.75 a 23 23 0 0 0 44.875 -7 a 23 23 0 0 0 -16 -21.875 z" style="opacity:0.2"/>
 </g>
 <g>
  <path d="m 24 1 c 12.703 0 23 10.297 23 23 c 0 12.703 -10.297 23 -23 23 -12.703 0 -23 -10.297 -23 -23 0 -12.703 10.297 -23 23 -23 z" style="fill:url(#linearGradient3764);fill-opacity:1"/>
 </g>
 <g>
  <path d="m 40.03 7.531 c 3.712 4.084 5.969 9.514 5.969 15.469 0 12.703 -10.297 23 -23 23 c -5.954 0 -11.384 -2.256 -15.469 -5.969 4.178 4.291 10.01 6.969 16.469 6.969 c 12.703 0 23 -10.298 23 -23 0 -6.462 -2.677 -12.291 -6.969 -16.469 z" style="opacity:0.1"/>
 </g>
 <path d="m 15.75 15 c -0.391 0 -0.75 0.422 -0.75 0.875 l 0 1.125 -1.094 0 -0.094 0 c -0.441 0.043 -0.816 0.419 -0.813 0.844 l 0 16.281 c 0 0.453 0.434 0.875 0.906 0.875 l 22.19 0 c 0.469 0 0.906 -0.422 0.906 -0.875 l 0 -14.219 c 0 -0.449 -0.438 -0.906 -0.906 -0.906 l -1.094 0 0 -3.125 c 0 -0.454 -0.355 -0.875 -0.75 -0.875 l -18.5 0 z" style="fill:#000;opacity:0.1;fill-opacity:1;stroke:none;fill-rule:nonzero"/>
 <path d="m 14 20 0 -5.132 c 0 -0.453 0.359 -0.868 0.75 -0.868 l 18.5 0 c 0.395 0 0.75 0.413 0.75 0.868 l 0 5.132 m -20 0" style="fill:#b29c9c;fill-opacity:1;stroke:none;fill-rule:nonzero"/>
 <path d="m 12.813 16 c -0.441 0.043 -0.816 0.434 -0.813 0.859 l 0 16.278 c 0 0.453 0.43 0.863 0.902 0.863 l 22.2 0 c 0.469 0 0.898 -0.41 0.898 -0.863 l 0 -14.243 c 0 -0.449 -0.43 -0.894 -0.898 -0.894 l -9.102 0 0 -1.125 c 0 -0.449 -0.457 -0.875 -0.925 -0.875 l -12.176 0 c -0.027 0 -0.059 0 -0.09 0" style="fill:#ecedf1;fill-opacity:1;stroke:none;fill-rule:nonzero"/>
 <path d="m 27.75 20 c -1.238 0 -2.25 1.01 -2.25 2.25 0 0.093 0.019 0.191 0.031 0.281 l -3.719 1.844 c -0.41 -0.395 -0.953 -0.625 -1.563 -0.625 -1.234 0 -2.25 1.01 -2.25 2.25 c 0 1.238 1.012 2.25 2.25 2.25 0.613 0 1.157 -0.23 1.563 -0.625 l 3.719 1.844 c -0.011 0.09 -0.031 0.187 -0.031 0.281 0 1.238 1.01 2.25 2.25 2.25 1.238 0 2.25 -1.01 2.25 -2.25 0 -1.238 -1.01 -2.25 -2.25 -2.25 c -0.606 0 -1.157 0.234 -1.563 0.625 l -3.719 -1.844 c 0.003 -0.09 0.031 -0.187 0.031 -0.281 c 0 -0.093 -0.019 -0.191 -0.031 -0.281 l 3.719 -1.844 c 0.407 0.391 0.957 0.625 1.563 0.625 1.238 0 2.25 -1.01 2.25 -2.25 0 -1.238 -1.01 -2.25 -2.25 -2.25 z" style="fill:#b29c9c;fill-opacity:1;stroke:none;fill-rule:nonzero"/>
</svg>
